X:1
T:The Hag with the Money
M:6/8
L:1/8
Q:80
C:3&4 by T. Tully
S:Jig
K:HP
{g}ea{g}ae{g}e{A}e|
{g}edBd{e}d{c}d|
{g}ea{g}ae{g}e{A}e|  !
{g}edB{g}B{d}A{e}A{g}ea{g}ae{g}e{A}e|
{g}edBg{a}fg|
a{g}a{g}age{A}e|  !
{g}edB{g}B{d}A{e}A:|
{g}efgB{e}B{G}B|
{g}edB{g}dB{G}B|  !
{g}efgB{e}B{G}B|
{g}edB{g}B{d}A{e}A{g}efgB{e}B{G}B|
{g}edB{g}efg|  !
a{g}a{g}age{A}e|
{g}edB{g}B{d}A{e}A:|
a{g}a{g}a{g}efg|  !
a{g}a{g}a{gef}e2f|
{a}gfgd{e}d{c}d|
{g}edB{g}B{d}A{e}Aa{g}a{g}a{g}efg|  !
{a}fed{g}efg|
a{g}a{g}age{A}e|
{g}edB{g}B{d}A{e}A:|  !
{g}efgB{e}B{G}B|
{g}dB{G}B{a}gB{G}B|
{g}eB{G}B{a}gB{G}B|  !
{g}edB{g}B{d}A{e}A{g}efgB{e}B{G}B|
{g}dB{G}B{g}efg|
a{g}a{g}age{A}e|  !
{g}edB{g}B{d}A{e}A:|

